dist/svg/u1F43A.svg

<?xml version="1.0" encoding="UTF-8"?><svg id="Layer_1" xmlns="http://www.w3.org/2000/svg" viewBox="0 0 40 40"><g><g><path d="M21.66884,3.09934l-4.83871,4.56423,6.83687,3.91512s.58785-5.13904-.86206-8.27625c-.20219-.43749-.7855-.5338-1.13609-.2031Z" style="fill:#8595aa;"/><path d="M36.40696,17.28093l-9.80997-2.89155s-.49552-3.96417-5.20304-5.81923c-1.13593-.44763-2.14641-1.16585-3.01518-2.02373l-3.93283-3.88351c-.4218-.47682-1.19331-.36921-1.46854,.20483l-3.22543,6.72737c-.20045,.41809-.54206,.76464-.97787,.92289-1.65519,.60103-5.46089,3.59566-6.1713,8.50859-.07357,.5088,.26647,1.00369,.7715,1.09982l3.44108,.65496c.62514,.25303,.94647,.9466,.72488,1.58356-.81755,2.35007-1.9629,8.03133,3.57207,12.93386,.10883,.09639,.2744,.08752,.36522-.026,.53463-.66821,2.26527-2.83149,3.30012-4.12505,.31921-.399,.93839-.27691,1.10533,.20603,.59269,1.71456,2.29696,4.807,7.06299,6.27402,.14687,.04521,.30124-.07539,.28088-.22771-.18072-1.35177-.46706-6.49725,5.38396-7.72904,6.33097-1.33284,5.25857-3.25762,8.6484-10.34511,.3814-.79745-.01729-1.75486-.85228-2.045Z" style="fill:#abb7c7;"/><path d="M37.25925,19.32593l-1.257,2.83864s-4.77432-1.91709-3.71004-6.09649l4.07693,1.1997c.84521,.29369,1.28864,1.25702,.8901,2.05815Z" style="fill:#495b73;"/></g><circle cx="21.15851" cy="15.08712" r="2.15552"/></g><rect width="40" height="40" style="fill:none;"/></svg>

<svg id="Layer_1" data-name="Layer 1" xmlns="http://www.w3.org/2000/svg" viewBox="0 0 40 40"><defs><style>.cls-1{fill:#8595aa;}.cls-2{fill:#abb7c7;}.cls-3{fill:#495b73;}.cls-4{fill:none;}</style></defs><path class="cls-1" d="M21.669,3.1,16.83,7.664l6.837,3.915s.588-5.139-.862-8.277A.715.715,0,0,0,21.669,3.1Z"/><path class="cls-2" d="M36.407,17.281,26.6,14.389a7.863,7.863,0,0,0-5.2-5.819,9.061,9.061,0,0,1-3.015-2.024L14.446,2.663a.89.89,0,0,0-1.469.205L9.752,9.6a1.783,1.783,0,0,1-.978.923A11.353,11.353,0,0,0,2.6,19.027a.979.979,0,0,0,.771,1.1l3.441.655a1.261,1.261,0,0,1,.725,1.584A11.558,11.558,0,0,0,11.112,35.3a.253.253,0,0,0,.366-.026l3.3-4.125a.638.638,0,0,1,1.1.206c.593,1.714,2.3,4.807,7.063,6.274a.217.217,0,0,0,.281-.228c-.181-1.352-.467-6.5,5.384-7.729,6.331-1.333,5.258-3.258,8.648-10.345A1.488,1.488,0,0,0,36.407,17.281Z"/><path class="cls-3" d="M37.259,19.326,36,22.165s-4.774-1.918-3.71-6.1l4.077,1.2A1.5,1.5,0,0,1,37.259,19.326Z"/><circle cx="21.159" cy="15.087" r="2.156"/><rect class="cls-4" width="40" height="40"/></svg>
